public/img/assets/icons/weather-conditions/partly-cloudy-night.svg

<svg width="120" height="120" viewBox="0 0 120 120" fill="none" xmlns="http://www.w3.org/2000/svg">
<path fill-rule="evenodd" clip-rule="evenodd" d="M59 26.144C67.6073 30.6806 73.4681 39.6617 73.4681 50C73.4681 60.3383 67.6073 69.3194 59 73.856C62.8077 75.8629 67.1529 77 71.766 77C86.8069 77 99 64.9117 99 50C99 35.0883 86.8069 23 71.766 23C67.1529 23 62.8077 24.1371 59 26.144Z" fill="#D580FF"/>
<path d="M88.125 62.4C88.0195 62.4 87.9316 62.435 87.8437 62.435C88.0371 61.525 88.125 60.58 88.125 59.6C88.125 51.865 81.832 45.6 74.0625 45.6C69.7383 45.6 65.9238 47.5775 63.3398 50.64C60.0703 44.34 53.5488 40 45.9375 40C35.0566 40 26.25 48.7675 26.25 59.6C26.25 60.8775 26.3906 62.1025 26.6191 63.31C19.8867 65.515 15 71.7625 15 79.2C15 88.475 22.5586 96 31.875 96H88.125C97.4414 96 105 88.475 105 79.2C105 69.925 97.4414 62.4 88.125 62.4Z" fill="#FF99FF"/>
<path fill-rule="evenodd" clip-rule="evenodd" d="M94.8964 63.8293C92.8466 62.9518 90.5872 62.4656 88.2139 62.4656C88.1587 62.4656 88.1083 62.4752 88.0602 62.4843C88.0163 62.4926 87.9743 62.5005 87.9323 62.5005C88.1259 61.5923 88.2139 60.6492 88.2139 59.6711C88.2139 51.9512 81.9133 45.6984 74.1343 45.6984C73.8928 45.6984 73.6528 45.7046 73.4146 45.7167C73.6186 47.0496 73.7244 48.4147 73.7244 49.8046C73.7244 60.0681 67.956 68.9843 59.4844 73.4881C63.232 75.4805 67.5087 76.6093 72.0491 76.6093C81.7115 76.6093 90.1798 71.4968 94.8964 63.8293Z" fill="#9966FF"/>
</svg>

<svg width="120" height="120" fill="none" xmlns="http://www.w3.org/2000/svg"><path fill-rule="evenodd" clip-rule="evenodd" d="M59 26.144C67.607 30.681 73.468 39.662 73.468 50c0 10.338-5.86 19.32-14.468 23.856A27.302 27.302 0 0 0 71.766 77C86.806 77 99 64.912 99 50S86.807 23 71.766 23A27.302 27.302 0 0 0 59 26.144Z" fill="#D580FF"/><path d="M88.125 62.4c-.106 0-.193.035-.281.035.193-.91.281-1.855.281-2.835 0-7.735-6.293-14-14.063-14-4.324 0-8.138 1.977-10.722 5.04C60.07 44.34 53.549 40 45.937 40c-10.88 0-19.687 8.767-19.687 19.6 0 1.277.14 2.502.37 3.71C19.886 65.515 15 71.763 15 79.2 15 88.475 22.559 96 31.875 96h56.25C97.441 96 105 88.475 105 79.2s-7.559-16.8-16.875-16.8Z" fill="#F9F"/><path fill-rule="evenodd" clip-rule="evenodd" d="M94.896 63.83a16.941 16.941 0 0 0-6.682-1.364c-.055 0-.106.01-.154.018a.694.694 0 0 1-.128.017c.194-.909.282-1.852.282-2.83 0-7.72-6.3-13.973-14.08-13.973-.241 0-.481.007-.72.019.205 1.333.31 2.698.31 4.088 0 10.263-5.768 19.18-14.24 23.683A26.686 26.686 0 0 0 72.05 76.61c9.662 0 18.13-5.112 22.847-12.78Z" fill="#96F"/></svg>
